X:2
T:House Of The Rising Sun
C:The Animals
L:1/4
M:3/4
I:linebreak $
K:C
"Am" A2 B |"C" c2 e |"D7" d A2 |"F" A2 a |$"Am" a2 a |"C" g2 e |"E7" e3 | z2 a |$"Am" a2 a |
"C" g2 e |"D7" d A2 |"F" A2 A |$"Am" A2 A |"E7" ^G E B |"Am" A3 ||1"E7" z4 :|2"Am" z4 |]

